src/pos-icons/comment-text-multiple-outline.svg

<svg height="24" viewBox="0 0 24 24" width="24" xmlns="http://www.w3.org/2000/svg"><path d="m12 23a1 1 0 0 1 -1-1v-3h-4a2 2 0 0 1 -2-2v-10a2 2 0 0 1 2-2h14a2 2 0 0 1 2 2v10a2 2 0 0 1 -2 2h-4.1l-3.7 3.71c-.2.18-.44.29-.7.29zm1-6v3.08l3.08-3.08h4.92v-10h-14v10zm-10-2h-2v-12a2 2 0 0 1 2-2h16v2h-16zm6-6h10v2h-10zm0 4h8v2h-8z"/></svg>

<?xml version="1.0" encoding="UTF-8"?><!DOCTYPE svg PUBLIC "-//W3C//DTD SVG 1.1//EN" "http://www.w3.org/Graphics/SVG/1.1/DTD/svg11.dtd"><svg xmlns="http://www.w3.org/2000/svg" xmlns:xlink="http://www.w3.org/1999/xlink" version="1.1" id="mdi-comment-text-multiple-outline" width="24" height="24" viewBox="0 0 24 24"><path d="M12,23A1,1 0 0,1 11,22V19H7A2,2 0 0,1 5,17V7A2,2 0 0,1 7,5H21A2,2 0 0,1 23,7V17A2,2 0 0,1 21,19H16.9L13.2,22.71C13,22.89 12.76,23 12.5,23H12M13,17V20.08L16.08,17H21V7H7V17H13M3,15H1V3A2,2 0 0,1 3,1H19V3H3V15M9,9H19V11H9V9M9,13H17V15H9V13Z" /></svg>
